src/img/event_icons/star.svg

<svg fill="none" height="15" viewBox="0 0 16 15" width="16" xmlns="http://www.w3.org/2000/svg"><path d="m10.543 4.87891 3.9101.57421c.3281.05469.6016.27344.711.60157.1093.30078.0273.65625-.2188.875l-2.8437 2.8164.6836 3.99221c.0546.3281-.0821.6562-.3555.8476-.2735.2188-.6289.2188-.9297.0821l-3.5-1.8868-3.52734 1.8868c-.27344.1367-.65625.1367-.90235-.0821-.27343-.1914-.41015-.5195-.35547-.8476l.65625-3.99221-2.84375-2.8164c-.24609-.21875-.328121-.57422-.218746-.875.109375-.32813.382816-.54688.710936-.60157l3.9375-.57421 1.75-3.63672c.13672-.300784.4375-.49219.79297-.49219.32812 0 .62891.191406.76562.49219z" fill="#000"/></svg>

<svg width="16" height="15" viewBox="0 0 16 15" fill="none" xmlns="http://www.w3.org/2000/svg">
<path d="M10.543 4.87891L14.4531 5.45312C14.7812 5.50781 15.0547 5.72656 15.1641 6.05469C15.2734 6.35547 15.1914 6.71094 14.9453 6.92969L12.1016 9.74609L12.7852 13.7383C12.8398 14.0664 12.7031 14.3945 12.4297 14.5859C12.1562 14.8047 11.8008 14.8047 11.5 14.668L8 12.7812L4.47266 14.668C4.19922 14.8047 3.81641 14.8047 3.57031 14.5859C3.29688 14.3945 3.16016 14.0664 3.21484 13.7383L3.87109 9.74609L1.02734 6.92969C0.78125 6.71094 0.699219 6.35547 0.808594 6.05469C0.917969 5.72656 1.19141 5.50781 1.51953 5.45312L5.45703 4.87891L7.20703 1.24219C7.34375 0.941406 7.64453 0.75 8 0.75C8.32812 0.75 8.62891 0.941406 8.76562 1.24219L10.543 4.87891Z" fill="black"/>
</svg>
